X:19
T:Handels. ThoH.019
Q:1/2=90
M:C
L:1/8
B:Thompson's Compleat Collection of 120 Favourite Hornpipes.
Z:Village Music Project, Simon Wilson 2016
O:England.
K:Bb
|:d2g2|{g}f2edc2dB|{B}A2GF BFBd|cFAc BFBd|cFAcB2g2|
{g}f2edc2dc|{B}A2GFe2dc|d2cB{d}c2BA|B4:|
|:f2b2|{b}a2gfg2af|{f}=e2dc fcfa|gc=eg fcfa |gc=eg f2b2|
{b}a2gfg2af|{f}=e2dc{c}B2AG|A2Bc{B}A2GB|F4a2d2|
^c2=BAa2d2|{d}^c2=BA fAdf|bdgb eceg|acfad2b2|
{b}a2gf=e3d|d4d2g2|{a}f2edc2dB|BAGF BFBd|cFAc BFBd|
BFAcB2g2|{g}f2edc2dB|{B}A2GF eedc|ddcB{d}c2BA|B4:|

